X:1
T:Title
%%score 1 { ( 2 3 4 ) | ( 5 6 7 ) }
L:1/8
Q:1/4=116
M:4/4
K:G
V:1 treble nm="Akkordion"
V:2 treble nm="Grand Piano"
V:3 treble 
V:4 treble 
V:5 bass 
V:6 bass 
V:7 bass 
V:1
 B4 A3 G | B4 z2 D2 | E2 F2 G2 B2 | e4 d2 z2 | B4 A3 G | B4 z2 G2 | E2 E2 F2 G2 | A6 z2 | B4 A3 G | %9
w: Powell~G.~Fithian * *|||||||||
 B6 B2 | E2 F2 ^G2 B2 | d4 c4 | G4 A2 G2 | d2 B2 G2 D2 | E4 F4 | G6 z2 | B4 _B3 =B | c4 B4 | %18
w: |||||||||
 G4 A2 G2 | B6 z2 | A4 ^G3 A | c2 E4 F2 | G2 B2 e2 ^c2 | d6 z2 | B4 _B3 =B | d4 G4 | c4 G3 A | %27
w: |||||||||
 B6 z2 | G4 F2 =F2 | E2 e2 c2 A2 | d2 G2 A3 G | G8- | G6 z2 |] %33
w: ||||||
V:2
 B4 A4 | B6 z2 | [^CG_B]2 [=CFA]2 [B,G]2 [B,D=B]2 | [CEc]4 [B,DB]2 z2 | B4 A4 | B6 z2 | %6
 [^CG]2 [CGA]2 [CFA]2 [CEA]2 | G2 z2 z4 | B4 A4 | B6 z2 | [B,D^G]4 [DFB]4 | [=FBd]4 [EAc]4 | %12
 [^D^d]8 | [Gd]8 | [G^c]4 [F=c]4 | [B,GB]6 z2 | z4 z2 z =B | [Ec]4 B4 | [EGe]4 ^d4 | [DGBd]6 z2 | %20
 z4 ^G4 | [CEc]2 [CEc]4 [CFc]2 | [B,DB]4 [_B,^C_B]4 | [DGB]6 z2 | [DBd]8 | [=FB=f]8 | [EGe]4 ^d4 | %27
 [DGBd]6 z2 | [G,B,DG]4 [CFA]2 [B,=FB]2 | [Ec]4 [CEAc]4 | [GB]2 [CG]2 [A,CFA]3 [G,B,G] | G8- | %32
 G6 z2 |] %33
V:3
 z2 D2 z2 z G | z2 D2 D2 [DGB]2 | x8 | x8 | z2 D2 z2 z G | z2 D2 D2 G2 | x8 | %7
 [CA]4- [C-EA-]2 [CDA]2 | z2 D2 z2 z G | z2 G2 G2 [B,DG]2 | x8 | x8 | G4 A2 G2 | x8 | x8 | x8 | %16
 [DB]4 _B4 | z4 z2 [G,B,]2 | z4 z2 C2 | z2 [G,B,]2 [G,B,]2 [G,B,]2 | [CFAc]4 z2 z A | x8 | x8 | %23
 z2 [G,B,]2 [G,B,]2 [G,B,]2 | z2 [G,B,]4 [G,B,]2 | z2 [G,B,]4 [G,B,]2 | z2 C2 z2 C2 | %27
 z2 [G,B,]2 [G,B,]2 [G,B,]2 | x8 | x8 | x8 | [G,B,]2 D4 C2 | B,6 z2 |] %33
V:4
 z4 z2 D2 | x8 | x8 | x8 | z4 z2 D2 | x8 | x8 | x8 | z4 z2 D2 | x8 | x8 | x8 | x8 | x8 | x8 | x8 | %16
 z2 [G,B,]4 B,2 | z2 [G,B,]4 z2 | z2 C4 z2 | x8 | z4 z2 D,2 | x8 | x8 | x8 | x8 | x8 | x8 | x8 | %28
 x8 | x8 | x8 | x8 | x8 |] %33
V:5
 z2 [D,G,B,]2 [D,G,B,D]2 [D,G,B,]2 | z2 [D,G,B,]2 [D,G,B,]2 [G,,G,]2 | %2
 [G,,G,]2 [G,,G,]2 [G,,G,]2 [G,,G,]2 | [G,,G,]4 [G,,G,]2 z2 | z2 [D,G,B,]2 [D,G,B,D]2 [D,G,B,]2 | %5
 z2 [D,G,B,]2 [D,G,B,]2 [D,G,B,D]2 | [A,,E,]2 [A,,E,]2 [A,,F,]2 [A,,G,]2 | z2 F2 E,2 F,2 | %8
 z2 [D,G,B,]2 [D,G,B,D]2 [D,G,B,]2 | z2 [=F,B,D]2 [F,B,D]2 [=F,,F,]2 | [E,,E,]4 [E,,E,]4 | %11
 [A,,A,]8 | [C,C]8 | [D,B,D]8 | [E,A,^C]4 [D,A,=C]4 | [G,,D,G,]6 z2 | z4 ^C4 | z4 D4 | %18
 z4[K:treble] [^DG]4 | G,,2 D,2 D,2 D,2 | D,,2 z2[K:treble] =F3 ^F | D,,2 D,4 D,2 | %22
 [G,,G,]4 [G,,G,]4 | G,,2 D,2 D,2 D,2 | G,,2 D,4 D,2 | G,,2 D,4 D,2 | z4[K:treble] [^DG]4 | %27
 G,,2 D,2 D,2 D,2 | G,,4 [G,,G,]2 [G,,G,]2 | [C,G,C]4 [A,,A,]4 | [D,G,B,]2 [D,E,G,]2 D,3 G,, | %31
 z2 F,2 E,2 ^D,2 | D,6 z2 |] %33
V:6
 G,,8 | G,,6 z2 | x8 | x8 | G,,6 z2 | G,,6 z2 | x8 | D,8 | G,,4 z4 | =F,,6 z2 | x8 | x8 | x8 | x8 | %14
 x8 | x8 | G,,2 z2 z2 z D | z2 D,4 z2 | z2 G,4[K:treble] z2 | x8 | z2 D,4[K:treble] z2 | x8 | x8 | %23
 x8 | x8 | x8 | z2 G,2[K:treble] [G,C]2 G,2 | x8 | x8 | x8 | x8 | G,,8- | G,,6 z2 |] %33
V:7
 x8 | x8 | x8 | x8 | x8 | x8 | x8 | x8 | x8 | x8 | x8 | x8 | x8 | x8 | x8 | x8 | z2 D,4 [D,G,]2 | %17
 G,,2 z2 z2 D,2 | C,2 z2[K:treble] z2 G,2 | x8 | x4[K:treble] x4 | x8 | x8 | x8 | x8 | x8 | %26
 C,8[K:treble] | x8 | x8 | x8 | x8 | x8 | x8 |] %33

